X:1
T:I Will Pass over You
T:James McGranahan
T:I Will Pass over You
T:Public Domain
T:Public Domain
T:Public Domain
C:James McGranahan
Z:Public Domain
%%score ( 1 2 ) ( 3 4 )
L:1/8
M:3/4
K:D
V:1 treble 
V:2 treble 
V:3 bass 
V:4 bass 
V:1
 [FA][FA] [FA] | [FA]3 [DF] [EG][CE] | [DF]4 D2 | [Fd]3 [Fd] [Ec][DB] | [CA]3 [CA] [EA][GA] | %5
w: 1.~When God of|old the way of|life Would|to all His own,|He placed them safe|
w: 2.~By Christ, the|sin- less Lamb of|God, The|cious blood was shed,|When He ful- filled|
w: 3.~O soul, for|thee sal- va- tion|thus By|is free- ly giv’n;|The blood of Christ|
w: 4.~The wrath of|God that was our|due, Up-|the Lamb was laid;|And by the shed-|
w: 5.~How calm the|Judg- ment hour shall|pass To|who do o- bey|The Word of God,|
 [FA]3 [DF] [DG][DA] | [DB]4 [Gc]2 | [Fd]3 [DF] [CB][CA] | D3 ||"^Refrain" FA [Fd] | %10
w: be- yond the reach|Of death,|by Blood a- lone.|||
w: God’s ho- ly Word,|And suf-|fered in our stead.|It|His Word, God’s|
w: a- tones for sin,|And makes|us meet for Heav’n.|||
w: ding of His blood,|The debt|for us was paid.|||
w: and trust the Blood,|And make|that Word their stay!|||
 (GG G)G c[GB] | (FF F2) [FA]2 | [EA]3 [FA] [GA][GA] | [FA]3 F A[Fd] | (GG G)G c>[GB] | %15
w: |||||
w: pre- * * cious Word, It|for- * * ev-|true; “When I the|Lord shall see the|blood, * * I will pass|
w: |||||
w: |||||
w: |||||
 (G>F F) z [Ad]2 | [Gd]2 z [Gd] [Gc][Ge] | [Fd]3 |] %18
w: |||
w: ver * * you.”|||
w: |||
w: |||
w: |||
V:2
 x3 | x6 | x4 D2 | x6 | x6 | x6 | x6 | x6 | D3 || x3 | c3 x3 | A4 x2 | x6 | x6 | c3 x3 | A3 x3 | %16
w: ||teach||||||||||||||
w: ||pre-||||||is||stands|er|||o-||
w: ||God||||||||||||||
w: ||on||||||||||||||
w: ||all||||||||||||||
 x6 | x3 |] %18
w: ||
w: ||
w: ||
w: ||
w: ||
V:3
 [D,D][D,D] [D,D] | [D,D]3 [D,A,] [A,,A,][A,,A,] | [D,A,]4 [D,F,]2 | %3
w: ~ ~ ~|~ ~ ~ ~|~ ~|
 [B,,B,]3 [B,,B,] [E,^G,][E,G,] | [A,,A,]3 [A,,A,] [A,,C][A,,E] | [D,D]3 [D,A,] [E,A,][F,A,] | %6
w: ~ ~ ~ ~|~ ~ ~ ~|~ ~ ~ ~|
 G,4 [E,A,]2 | [D,A,]3 [D,A,] [A,,G,][A,,G,] | [D,F,]3 || z2 [D,A,] | %10
w: ~ ~|~ ~ ~ ~|It|is|
 [E,A,][E,A,] [E,A,] z2 [A,,C] | [D,D][D,D] [D,D]2 [F,D]2 | [G,C]3 [F,D] [E,E][A,,E] | %13
w: His Word, God’s pre-|cious Word, ~ ~|~ ~ ~ ~|
 [D,D]3 z2 [D,A,] | [E,A,][E,A,] [E,A,] z z3/2 [A,,E]/ | [D,E]>[D,D] [D,D] z [F,=C]2 | %16
w: “When I|the Lord shall see|the blood, * *|
 [G,B,]2 z [E,B,] A,[A,,A,] | [D,A,]3 |] %18
w: ||
V:4
 x3 | x6 | x6 | x6 | x6 | x6 | G,4 x2 | x6 | x3 || x3 | x6 | x6 | x6 | x6 | x6 | x6 | x4 A, x | %17
w: ||||||~|||||||||||
 x3 |] %18
w: |

